Sources/FrostedUI/Resources/Icons.xcassets/emailOut24.imageset/email-out-24.svg

<svg
  width="24"
  height="24"
  viewBox="0 0 24 24"
  fill="none"
  xmlns="http://www.w3.org/2000/svg"
  data-fui-icon="true"
>
  <path
    d="M20.75 10.5V7.04C20.75 5.49913 19.5009 4.25 17.96 4.25H3.54C1.99913 4.25 0.75 5.49913 0.75 7.04V16.96C0.75 18.5009 1.99913 19.75 3.54 19.75H16.75"
    stroke="currentColor"
    stroke-width="1.5"
    stroke-linecap="round"
    stroke-linejoin="round"
  />
  <path
    d="M.75 7.75L8.56324 13.0756C9.20786 13.515 9.96988 13.75 10.75 13.75V13.75C11.5301 13.75 12.2921 13.515 12.9368 13.0756L20.75 7.75M19.875 13.0625L23.25 16.25 19.875 19.4375M14.625 16.25H23.25"
    stroke="currentColor"
    stroke-width="1.5"
    stroke-linecap="round"
    stroke-linejoin="round"
  />
</svg>

<svg xmlns="http://www.w3.org/2000/svg" width="24" height="24" fill="none" data-fui-icon="true" viewBox="0 0 24 24"><path stroke="currentColor" stroke-linecap="round" stroke-linejoin="round" stroke-width="1.5" d="M20.75 10.5V7.04a2.79 2.79 0 0 0-2.79-2.79H3.54A2.79 2.79 0 0 0 .75 7.04v9.92a2.79 2.79 0 0 0 2.79 2.79h13.21"/><path stroke="currentColor" stroke-linecap="round" stroke-linejoin="round" stroke-width="1.5" d="m.75 7.75 7.813 5.326c.645.439 1.407.674 2.187.674v0c.78 0 1.542-.235 2.187-.674L20.75 7.75m-.875 5.313 3.375 3.187-3.375 3.188m-5.25-3.188h8.625"/></svg>
